img/upload-button.svg

<svg xmlns="http://www.w3.org/2000/svg" preserveAspectRatio="xMidYMid" width="86" height="114.188"><defs><style>.cls-2{fill:#fff}</style></defs><path d="M80.571 11.882c-.696.738-1.794 1.107-3.294 1.107a25.001 25.001 0 0 1-1.368-.045 11.566 11.566 0 0 1-.882-.09 8.936 8.936 0 0 1-.828-.153V.209h2.268v4.536a6.99 6.99 0 0 0 .279-.054c.114-.024.237-.042.369-.054l.414-.036c.144-.012.27-.018.378-.018.504 0 .981.06 1.431.18.45.12.843.33 1.179.63.336.3.603.711.801 1.233.198.522.297 1.185.297 1.989 0 1.44-.348 2.529-1.044 3.267zm-1.476-4.194a1.546 1.546 0 0 0-.387-.63 1.277 1.277 0 0 0-.576-.306 3.082 3.082 0 0 0-.729-.081 3.17 3.17 0 0 0-.513.054 1.77 1.77 0 0 0-.423.108v3.96c.108.036.249.063.423.081.174.018.345.027.513.027.564 0 1.011-.162 1.341-.486.33-.324.495-.888.495-1.692 0-.42-.048-.765-.144-1.035zm-8.838 5.121h-2.268V2.297h-2.988V.209h8.244v2.088h-2.988v10.512zm-8.478-6.714l.18-1.782h-.09l-.684 1.908-3.582 6.588h-1.782V.209h2.268v6.588l-.198 1.836h.09l.72-1.962L62.283.209h1.764v12.6h-2.268V6.095zM54.03 7.139c.342.504.513 1.188.513 2.052 0 .684-.111 1.272-.333 1.764a3.286 3.286 0 0 1-.9 1.206c-.378.312-.813.54-1.305.684a5.419 5.419 0 0 1-1.53.216 8.638 8.638 0 0 1-1.782-.171c-.54-.114-.972-.267-1.296-.459l.594-2.016c.228.132.543.258.945.378.402.12.873.18 1.413.18.492 0 .918-.159 1.278-.477.36-.318.54-.819.54-1.503 0-.588-.165-1.029-.495-1.323-.33-.294-.909-.453-1.737-.477-.132 0-.222-.003-.27-.009a3.17 3.17 0 0 0-.306-.009h-.414V5.339h.432c.18 0 .402-.006.666-.018.264-.012.474-.048.63-.108.324-.096.6-.276.828-.54.228-.264.342-.606.342-1.026 0-.588-.141-.996-.423-1.224-.282-.228-.675-.342-1.179-.342-.408 0-.789.063-1.143.189a4.108 4.108 0 0 0-.837.387L47.685.695c.12-.072.288-.15.504-.234a6.986 6.986 0 0 1 1.593-.405 6.81 6.81 0 0 1 .927-.063c.456 0 .897.045 1.323.135.426.09.801.252 1.125.486.324.234.582.555.774.963.192.408.288.93.288 1.566 0 .612-.129 1.182-.387 1.71s-.675.918-1.251 1.17v.108c.624.168 1.107.504 1.449 1.008zm-10.035 3.555a6.218 6.218 0 0 1-.63 1.251c-.228.336-.483.585-.765.747-.282.162-.627.243-1.035.243-.324 0-.603-.03-.837-.09a2.407 2.407 0 0 1-.729-.342l.558-1.908c.168.096.318.159.45.189s.27.051.414.063c.444 0 .75-.456.918-1.368L38.451.209h2.682l1.926 5.49.27 1.674h.09l.234-1.728L45.075.209h2.34l-2.808 8.712c-.216.684-.42 1.275-.612 1.773zm-6.912-3.141c-.372.348-.801.6-1.287.756a4.888 4.888 0 0 1-1.503.234h-.234a6.862 6.862 0 0 1-.693-.036 1.999 1.999 0 0 1-.243-.036v4.338h-2.268V.335c.432-.096.906-.171 1.422-.225a14.863 14.863 0 0 1 1.548-.081c.552 0 1.095.051 1.629.153a3.587 3.587 0 0 1 1.431.603c.42.3.762.723 1.026 1.269.264.546.396 1.257.396 2.133 0 .792-.111 1.464-.333 2.016-.222.552-.519 1.002-.891 1.35zm-1.305-4.392a1.67 1.67 0 0 0-.414-.657 1.566 1.566 0 0 0-.603-.351 2.377 2.377 0 0 0-.72-.108c-.372 0-.678.03-.918.09v4.302c.072.024.207.045.405.063.198.018.333.027.405.027.264 0 .516-.036.756-.108.24-.072.453-.195.639-.369s.333-.414.441-.72c.108-.306.162-.693.162-1.161 0-.396-.051-.732-.153-1.008zm-9.513 9.648h-2.268V.209h6.174v2.088h-3.906v10.512zm-6.191-2.88h-2.97l-.738 2.88h-2.25L17.77.119h1.782l3.672 12.69h-2.376l-.774-2.88zm-1.116-4.77l-.288-1.98h-.072l-.306 1.998-.702 2.916h2.088l-.72-2.934zm-5.769 1.98c.342.504.513 1.188.513 2.052 0 .684-.112 1.272-.333 1.764a3.297 3.297 0 0 1-.9 1.206c-.378.312-.814.54-1.305.684a5.429 5.429 0 0 1-1.53.216 8.638 8.638 0 0 1-1.782-.171c-.54-.114-.972-.267-1.296-.459l.594-2.016c.227.132.542.258.945.378.401.12.873.18 1.413.18.491 0 .918-.159 1.278-.477.36-.318.54-.819.54-1.503 0-.588-.166-1.029-.495-1.323-.331-.294-.909-.453-1.737-.477-.133 0-.223-.003-.27-.009a3.2 3.2 0 0 0-.306-.009h-.414V5.339h.432c.18 0 .401-.006.666-.018.263-.012.473-.048.63-.108.324-.096.599-.276.828-.54.227-.264.342-.606.342-1.026 0-.588-.142-.996-.423-1.224-.283-.228-.675-.342-1.179-.342-.409 0-.79.063-1.143.189a4.057 4.057 0 0 0-.837.387L6.844.695c.119-.072.288-.15.504-.234A6.986 6.986 0 0 1 8.941.056c.306-.042.614-.063.927-.063.455 0 .896.045 1.323.135.425.09.801.252 1.125.486.324.234.581.555.774.963.191.408.288.93.288 1.566 0 .612-.13 1.182-.387 1.71-.259.528-.675.918-1.251 1.17v.108c.623.168 1.107.504 1.449 1.008z" fill-rule="evenodd" fill="#fff"/><rect y="28.188" width="86" height="86" rx="20" ry="20" class="cls-2"/><circle cx="42" cy="72.188" r="24" fill="#943106"/><circle cx="41.922" cy="72.11" r="19.578" class="cls-2"/></svg>

<svg xmlns="http://www.w3.org/2000/svg" xmlns:xlink="http://www.w3.org/1999/xlink" preserveAspectRatio="xMidYMid" width="86" height="114.188" viewBox="0 0 86 114.188">
  <defs>
    <style>
      .cls-1, .cls-2 {
        fill: #fff;
      }

      .cls-1 {
        fill-rule: evenodd;
      }

      .cls-3 {
        fill: #943106;
      }
    </style>
  </defs>
  <g>
    <path d="M80.571,11.882 C79.875,12.620 78.777,12.989 77.277,12.989 C77.145,12.989 76.956,12.986 76.710,12.980 C76.464,12.974 76.197,12.962 75.909,12.944 C75.621,12.926 75.327,12.896 75.027,12.854 C74.727,12.812 74.451,12.761 74.199,12.701 L74.199,0.209 L76.467,0.209 L76.467,4.745 C76.539,4.733 76.632,4.715 76.746,4.691 C76.860,4.667 76.983,4.649 77.115,4.637 C77.247,4.625 77.385,4.613 77.529,4.601 C77.673,4.589 77.799,4.583 77.907,4.583 C78.411,4.583 78.888,4.643 79.338,4.763 C79.788,4.883 80.181,5.093 80.517,5.393 C80.853,5.693 81.120,6.104 81.318,6.626 C81.516,7.148 81.615,7.811 81.615,8.615 C81.615,10.055 81.267,11.144 80.571,11.882 ZM79.095,7.688 C78.999,7.418 78.870,7.208 78.708,7.058 C78.546,6.908 78.354,6.806 78.132,6.752 C77.910,6.698 77.667,6.671 77.403,6.671 C77.271,6.671 77.100,6.689 76.890,6.725 C76.680,6.761 76.539,6.797 76.467,6.833 L76.467,10.793 C76.575,10.829 76.716,10.856 76.890,10.874 C77.064,10.892 77.235,10.901 77.403,10.901 C77.967,10.901 78.414,10.739 78.744,10.415 C79.074,10.091 79.239,9.527 79.239,8.723 C79.239,8.303 79.191,7.958 79.095,7.688 ZM70.257,12.809 L67.989,12.809 L67.989,2.297 L65.001,2.297 L65.001,0.209 L73.245,0.209 L73.245,2.297 L70.257,2.297 L70.257,12.809 ZM61.779,6.095 L61.959,4.313 L61.869,4.313 L61.185,6.221 L57.603,12.809 L55.821,12.809 L55.821,0.209 L58.089,0.209 L58.089,6.797 L57.891,8.633 L57.981,8.633 L58.701,6.671 L62.283,0.209 L64.047,0.209 L64.047,12.809 L61.779,12.809 L61.779,6.095 ZM54.030,7.139 C54.372,7.643 54.543,8.327 54.543,9.191 C54.543,9.875 54.432,10.463 54.210,10.955 C53.988,11.447 53.688,11.849 53.310,12.161 C52.932,12.473 52.497,12.701 52.005,12.845 C51.513,12.989 51.003,13.061 50.475,13.061 C49.827,13.061 49.233,13.004 48.693,12.890 C48.153,12.776 47.721,12.623 47.397,12.431 L47.991,10.415 C48.219,10.547 48.534,10.673 48.936,10.793 C49.338,10.913 49.809,10.973 50.349,10.973 C50.841,10.973 51.267,10.814 51.627,10.496 C51.987,10.178 52.167,9.677 52.167,8.993 C52.167,8.405 52.002,7.964 51.672,7.670 C51.342,7.376 50.763,7.217 49.935,7.193 C49.803,7.193 49.713,7.190 49.665,7.184 C49.617,7.178 49.515,7.175 49.359,7.175 L48.945,7.175 L48.945,5.339 L49.377,5.339 C49.557,5.339 49.779,5.333 50.043,5.321 C50.307,5.309 50.517,5.273 50.673,5.213 C50.997,5.117 51.273,4.937 51.501,4.673 C51.729,4.409 51.843,4.067 51.843,3.647 C51.843,3.059 51.702,2.651 51.420,2.423 C51.138,2.195 50.745,2.081 50.241,2.081 C49.833,2.081 49.452,2.144 49.098,2.270 C48.744,2.396 48.465,2.525 48.261,2.657 L47.685,0.695 C47.805,0.623 47.973,0.545 48.189,0.461 C48.405,0.377 48.648,0.299 48.918,0.227 C49.188,0.155 49.476,0.098 49.782,0.056 C50.088,0.014 50.397,-0.007 50.709,-0.007 C51.165,-0.007 51.606,0.038 52.032,0.128 C52.458,0.218 52.833,0.380 53.157,0.614 C53.481,0.848 53.739,1.169 53.931,1.577 C54.123,1.985 54.219,2.507 54.219,3.143 C54.219,3.755 54.090,4.325 53.832,4.853 C53.574,5.381 53.157,5.771 52.581,6.023 L52.581,6.131 C53.205,6.299 53.688,6.635 54.030,7.139 ZM43.995,10.694 C43.803,11.192 43.593,11.609 43.365,11.945 C43.137,12.281 42.882,12.530 42.600,12.692 C42.318,12.854 41.973,12.935 41.565,12.935 C41.241,12.935 40.962,12.905 40.728,12.845 C40.494,12.785 40.251,12.671 39.999,12.503 L40.557,10.595 C40.725,10.691 40.875,10.754 41.007,10.784 C41.139,10.814 41.277,10.835 41.421,10.847 C41.865,10.847 42.171,10.391 42.339,9.479 L38.451,0.209 L41.133,0.209 L43.059,5.699 L43.329,7.373 L43.419,7.373 L43.653,5.645 L45.075,0.209 L47.415,0.209 L44.607,8.921 C44.391,9.605 44.187,10.196 43.995,10.694 ZM37.083,7.553 C36.711,7.901 36.282,8.153 35.796,8.309 C35.310,8.465 34.809,8.543 34.293,8.543 C34.245,8.543 34.167,8.543 34.059,8.543 C33.951,8.543 33.837,8.540 33.717,8.534 C33.597,8.528 33.480,8.519 33.366,8.507 C33.252,8.495 33.171,8.483 33.123,8.471 L33.123,12.809 L30.855,12.809 L30.855,0.335 C31.287,0.239 31.761,0.164 32.277,0.110 C32.793,0.056 33.309,0.029 33.825,0.029 C34.377,0.029 34.920,0.080 35.454,0.182 C35.988,0.284 36.465,0.485 36.885,0.785 C37.305,1.085 37.647,1.508 37.911,2.054 C38.175,2.600 38.307,3.311 38.307,4.187 C38.307,4.979 38.196,5.651 37.974,6.203 C37.752,6.755 37.455,7.205 37.083,7.553 ZM35.778,3.161 C35.676,2.885 35.538,2.666 35.364,2.504 C35.190,2.342 34.989,2.225 34.761,2.153 C34.533,2.081 34.293,2.045 34.041,2.045 C33.669,2.045 33.363,2.075 33.123,2.135 L33.123,6.437 C33.195,6.461 33.330,6.482 33.528,6.500 C33.726,6.518 33.861,6.527 33.933,6.527 C34.197,6.527 34.449,6.491 34.689,6.419 C34.929,6.347 35.142,6.224 35.328,6.050 C35.514,5.876 35.661,5.636 35.769,5.330 C35.877,5.024 35.931,4.637 35.931,4.169 C35.931,3.773 35.880,3.437 35.778,3.161 ZM26.265,12.809 L23.997,12.809 L23.997,0.209 L30.171,0.209 L30.171,2.297 L26.265,2.297 L26.265,12.809 ZM20.074,9.929 L17.104,9.929 L16.366,12.809 L14.116,12.809 L17.770,0.119 L19.552,0.119 L23.224,12.809 L20.848,12.809 L20.074,9.929 ZM18.958,5.159 L18.670,3.179 L18.598,3.179 L18.292,5.177 L17.590,8.093 L19.678,8.093 L18.958,5.159 ZM13.189,7.139 C13.531,7.643 13.702,8.327 13.702,9.191 C13.702,9.875 13.590,10.463 13.369,10.955 C13.146,11.447 12.847,11.849 12.469,12.161 C12.091,12.473 11.655,12.701 11.164,12.845 C10.671,12.989 10.161,13.061 9.634,13.061 C8.986,13.061 8.392,13.004 7.852,12.890 C7.312,12.776 6.880,12.623 6.556,12.431 L7.150,10.415 C7.377,10.547 7.692,10.673 8.095,10.793 C8.496,10.913 8.968,10.973 9.508,10.973 C9.999,10.973 10.426,10.814 10.786,10.496 C11.146,10.178 11.326,9.677 11.326,8.993 C11.326,8.405 11.160,7.964 10.831,7.670 C10.500,7.376 9.922,7.217 9.094,7.193 C8.961,7.193 8.871,7.190 8.824,7.184 C8.775,7.178 8.673,7.175 8.518,7.175 L8.104,7.175 L8.104,5.339 L8.536,5.339 C8.716,5.339 8.937,5.333 9.202,5.321 C9.465,5.309 9.675,5.273 9.832,5.213 C10.156,5.117 10.431,4.937 10.660,4.673 C10.887,4.409 11.002,4.067 11.002,3.647 C11.002,3.059 10.860,2.651 10.579,2.423 C10.296,2.195 9.904,2.081 9.400,2.081 C8.991,2.081 8.610,2.144 8.257,2.270 C7.902,2.396 7.623,2.525 7.420,2.657 L6.844,0.695 C6.963,0.623 7.132,0.545 7.348,0.461 C7.564,0.377 7.807,0.299 8.077,0.227 C8.347,0.155 8.635,0.098 8.941,0.056 C9.247,0.014 9.555,-0.007 9.868,-0.007 C10.323,-0.007 10.764,0.038 11.191,0.128 C11.616,0.218 11.992,0.380 12.316,0.614 C12.640,0.848 12.897,1.169 13.090,1.577 C13.281,1.985 13.378,2.507 13.378,3.143 C13.378,3.755 13.248,4.325 12.991,4.853 C12.732,5.381 12.316,5.771 11.740,6.023 L11.740,6.131 C12.363,6.299 12.847,6.635 13.189,7.139 Z" class="cls-1"/>
    <rect y="28.188" width="86" height="86" rx="20" ry="20" class="cls-2"/>
    <circle cx="42" cy="72.188" r="24" class="cls-3"/>
    <circle cx="41.922" cy="72.11" r="19.578" class="cls-2"/>
  </g>
</svg>
